bundles/org.openhab.ui.iconset.classic/src/main/resources/icons/alarm.svg

<?xml version="1.0" encoding="UTF-8"?>
<svg enable-background="new 0 0 64 64" viewBox="0 0 64 64" xmlns="http://www.w3.org/2000/svg">
 <path d="m6 58.5c-.83 0-1.5-.67-1.5-1.5v-4.15c0-.83.67-1.5 1.5-1.5h52c.83 0 1.5.67 1.5 1.5v4.15c0 .83-.67 1.5-1.5 1.5h-52" fill="#afafaf"/>
 <path d="m58 51.86c.55 0 1 .45 1 1v4.14c0 .55-.45 1-1 1h-52c-.55 0-1-.45-1-1v-4.15c0-.55.45-1 1-1h52m0-.99h-52c-1.1 0-2 .9-2 2v4.14c0 1.1.9 2 2 2h52c1.1 0 2-.9 2-2v-4.15c0-1.1-.9-1.99-2-1.99z" fill="#787878"/>
 <path d="m8.42 50.5l.06-.55c.41-3.83.75-7.97 1.08-11.99 1.25-15.24 2.43-29.63 7.3-31.43 5.26-1.95 14.12-2.03 15.11-2.03 1.04 0 9.91.08 15.18 2.03 4.87 1.81 6.05 16.2 7.3 31.43.33 4.01.67 8.16 1.08 11.99l.06.55h-47.17" fill="#ef4d4d"/>
 <path d="m32.02 5c0.51 0 9.68 0.04 14.95 2 5.83 2.17 6.17 25.33 8.05 43h-46.04c1.88-17.67 2.22-40.84 8.05-43 5.27-1.96 14.45-2 14.95-2h0.02s0.02 0 0.02 0m0-1v1l-0.02-1c-1.03 0-9.97 0.07-15.32 2.06-5.17 1.92-6.3 15.8-7.62 31.86-0.33 4.01-0.67 8.15-1.07 11.97l-0.13 1.11h48.27l-0.12-1.11c-0.41-3.82-0.75-7.96-1.07-11.97-1.32-16.07-2.45-29.94-7.62-31.86-5.36-1.99-14.29-2.06-15.3-2.06z" fill="#cc2929"/>
 <path d="m32.01 6.99s-10.38-0.94-14.01 2.01c-4.92 4-6.08 22.75-7 39h21.01v-41.01" fill="#ffce00"/>
</svg>

<svg viewBox="0 0 64 64" xmlns="http://www.w3.org/2000/svg"><path d="M6 58.5c-.83 0-1.5-.67-1.5-1.5v-4.15c0-.83.67-1.5 1.5-1.5h52c.83 0 1.5.67 1.5 1.5V57c0 .83-.67 1.5-1.5 1.5H6" fill="#afafaf"/><path d="M58 51.86c.55 0 1 .45 1 1V57c0 .55-.45 1-1 1H6c-.55 0-1-.45-1-1v-4.15c0-.55.45-1 1-1h52m0-.99H6c-1.1 0-2 .9-2 2V57c0 1.1.9 2 2 2h52c1.1 0 2-.9 2-2v-4.15c0-1.1-.9-1.99-2-1.99z" fill="#787878"/><path d="m8.42 50.5.06-.55c.41-3.83.75-7.97 1.08-11.99 1.25-15.24 2.43-29.63 7.3-31.43C22.12 4.58 30.98 4.5 31.97 4.5c1.04 0 9.91.08 15.18 2.03 4.87 1.81 6.05 16.2 7.3 31.43.33 4.01.67 8.16 1.08 11.99l.06.55H8.42" fill="#ef4d4d"/><path d="M32.02 5c.51 0 9.68.04 14.95 2 5.83 2.17 6.17 25.33 8.05 43H8.98c1.88-17.67 2.22-40.84 8.05-43 5.27-1.96 14.45-2 14.95-2h.04m0-1v1L32 4c-1.03 0-9.97.07-15.32 2.06-5.17 1.92-6.3 15.8-7.62 31.86-.33 4.01-.67 8.15-1.07 11.97L7.86 51h48.27l-.12-1.11c-.41-3.82-.75-7.96-1.07-11.97-1.32-16.07-2.45-29.94-7.62-31.86C41.96 4.07 33.03 4 32.02 4z" fill="#cc2929"/><path d="M32.01 6.99S21.63 6.05 18 9c-4.92 4-6.08 22.75-7 39h21.01V6.99" fill="#ffce00"/></svg>
